docs/img/svg/s-instagram.svg

<svg width="26" height="27" viewBox="0 0 26 27" fill="none" xmlns="http://www.w3.org/2000/svg">
<path d="M3.37876 0.179199H21.9611C23.7258 0.179199 25.1697 1.56214 25.1697 3.57541V23.2449C25.1697 25.2582 23.7258 26.6411 21.9611 26.6411H3.37876C1.61353 26.6411 0.169922 25.2582 0.169922 23.2449V3.57541C0.169922 1.56214 1.61353 0.179199 3.37876 0.179199ZM18.3813 3.11923C17.7622 3.11923 17.2563 3.65502 17.2563 4.31062V7.16208C17.2563 7.81741 17.7622 8.35347 18.3813 8.35347H21.2069C21.8261 8.35347 22.3325 7.81741 22.3325 7.16208V4.31062C22.3325 3.65502 21.8261 3.11923 21.2069 3.11923H18.3813ZM22.3443 11.3698H20.144C20.3522 12.0893 20.4649 12.8514 20.4649 13.6399C20.4649 18.0414 16.9852 21.6093 12.6937 21.6093C8.40238 21.6093 4.92325 18.0414 4.92325 13.6399C4.92325 12.8509 5.03568 12.089 5.24411 11.3698H2.94804V22.5477C2.94804 23.1262 3.39519 23.5997 3.94193 23.5997H21.3509C21.8977 23.5997 22.3448 23.1264 22.3448 22.5477V11.3698H22.3443ZM12.6934 8.20322C9.92068 8.20322 7.67262 10.5086 7.67262 13.3527C7.67262 16.1968 9.92068 18.5022 12.6934 18.5022C15.4664 18.5022 17.7147 16.1968 17.7147 13.3527C17.7147 10.5086 15.4667 8.20322 12.6934 8.20322Z" fill="#605F6C"/>
</svg>

<svg width="26" height="27" viewBox="0 0 26 27" fill="none" xmlns="http://www.w3.org/2000/svg"><path d="M3.379.18H21.96c1.765 0 3.209 1.382 3.209 3.395v19.67c0 2.013-1.444 3.396-3.209 3.396H3.38c-1.765 0-3.21-1.383-3.21-3.396V3.575C.17 1.562 1.615.18 3.38.18zM18.38 3.12c-.619 0-1.125.535-1.125 1.19v2.852c0 .655.506 1.191 1.125 1.191h2.826c.62 0 1.125-.536 1.125-1.19V4.31c0-.656-.506-1.192-1.125-1.192H18.38zm3.963 8.25h-2.2c.208.72.32 1.481.32 2.27 0 4.401-3.479 7.97-7.77 7.97-4.292 0-7.77-3.569-7.77-7.97 0-.79.112-1.551.32-2.27H2.948v11.178c0 .578.447 1.052.994 1.052H21.35c.547 0 .994-.474.994-1.052V11.37zm-9.65-3.167c-2.773 0-5.021 2.306-5.021 5.15 0 2.844 2.248 5.15 5.02 5.15 2.773 0 5.022-2.306 5.022-5.15 0-2.844-2.248-5.15-5.022-5.15z" fill="#605F6C"/></svg>
